X:144
T:Oliver's Reel
R:reel
C:Bruce Osborne - Dec. 2002
Z:abc by bosborne@kos.net
M:2/4
L:1/8
K:Amaj
G,|A,A,/C/ EE/G/|AA/B/ cB/A/|G/B/E/G/ B/E/G/B/|A/G/A/B/ c/A/E/C/|\
A,A,/C/ EE/G/|AA/B/ cB/A/|G/B/E/G/ B/E/G/B/|c/A/A/G/ A:|
|:c/d/|e/A/A/B/ c/e/A/B/|c/e/A/B/ cB/A/|G/B/E/G/ B/E/G/B/|e/f/e/d/ cc/d/|\
e/A/A/B/ c/e/A/B/|c/e/A/B/ cB/A/|G/B/E/G/ B/E/G/B/|c/A/A/G/ A:|
